X: 347
T: Take Me Back to Georgia
B: canberra pickers and fiddlers
B: old time tunes update
B: tunes
M:4/4
L:1/8
Q: 1/4=100
K:C
V:1 
(3G,A,B, |:"C"CB,CE G2E2 | "F"FEFA "(D)"d2 dc | "G"B2 GB AGAB |"C"cBce cAGF |
EC2 EG2E2 | "F"FEFA "D"d2dc | "G"B2GB AGBA |[1 "C"c2cd c2 (3G,A,B, :|[2 "C"c2cd c2yJ([e2e ||
|: "C"[ee])ged cdeg | a2g2g3 J(B | "G"B)cBA GABc | "C"d2c4 J[e2e]-|ee ged cdeg | a2g4 J(c'2 | "G"c'2) b2 abag |["C"e2c4 J[e2e]:|[2"C"e2c4|]
% abcbook-tune_id 67a7d9ece46e463af9225667
% abcbook-tune_composer_id 
% abcbook-link-0 https://www.youtube.com/watch?v=YHSyV91AJNE
% abcbook-link-title-0 Take Me Back to Georgia
% abcbook-boost 0
% abcbook-difficulty 0
% abcbook-tags old time tunes
% abcbook-tablature 
% abcbook-transpose 
% abcbook-tuning GDAE
% abcbook-lastupdated 1739242352389
% abcbook-src-url 
% abcbook-soundfonts 
% abcbook-repeats 1


